**kern
*clefC3
*k[]
*M4/4
=1-
4c-
(16d
2e-)
8d
16d
=2
16r
(2c
8c)
4c
16c
=3
1B
=4
4B
(16B 16G
4c)
8d
4d
16d
=5
1e
=6
1d#
=7
2c#
4r
(4B 4G
=8
4A)
2G
4G-
=9
1G
=10
2r
2G
=11
*-